X:1
T:None Can Help Like Jesus
T:None Can Help Like Jesus
T:William James Kirkpatrick
T:May Maurice, 1898
T:Public Domain Courtesy of the Cyber Hymnal™
C:William James Kirkpatrick
Z:Public Domain
Z:Courtesy of the Cyber Hymnal™
%%score ( 1 2 ) 3
L:1/8
Q:1/4=107
M:4/4
K:E
V:1 treble 
V:2 treble 
V:3 bass 
V:1
 [EG]3 [EG] [EA]2 [EG]2 | [E^^F]2 [EG]2 E4 | [DF]3 [DF] E2 [DF]2 | [EG]4 [EB]4 | %4
w: 1.~In the dew of|ear- ly youth,|None can help like|Je- sus;|
w: 2.~In the mid- day|whirl of care,|None can help like|Je- sus;|
w: 3.~In the twi- light’s|fad- ing glow,|None can help like|Je- sus;|
 [EG]3 [EG] [EA]2 [EG]2 | [E^^F]2 [EG]2 E4 | [DF]3 [DF] [EG]2 [DF]2 | F4 [B,E]4 | %8
w: Seek- ing af- ter|pearls of truth,|None can help like|Je- sus;|
w: When you hea- vy|bur- dens bear,|None can help like|Je- sus;|
w: When your strength is|eb- bing slow,|None can help like|Je- sus;|
 [GB]3 [GB] [Ac]2 [GB]2 | [=F^A]2 [GB]2 [EG]4 | [FA]3 [FA] [GB]2 [FA]2 | [^EG]2 [FA]2 [DF]4 || %12
w: He’s the source of|liv- ing light,|He will guide your|steps a- right;|
w: He will give you|sweet- est rest,|All who trust in|Him are blest;|
w: He will shield from|death’s a- larms,|Fold you in His|lov- ing arms.|
"^Refrain" [EG]3 [EG] [B,F]2 E2 | [CE]4 [EA]4 | [EG]2 z2 [B,E]2 E2 |!<(! F4!<)! [B,E]4 |] %16
w: ||||
w: None can help like|Je- sus,|No! none like|Je- sus.|
w: ||||
V:2
 x8 | x4 E4 | x4 E2 x2 | x8 | x8 | x4 E4 | x8 | (D2 B,2) x4 | x8 | x8 | x8 | x8 || x6 (B,=D) | x8 | %14
 x6 E2 | (D2 B,2) x4 |] %16
V:3
 [E,B,]3 [E,B,] [E,C]2 [E,B,]2 | [E,^A,]2 [E,B,]2 [E,G,]4 | [B,,A,]3 [B,,A,] [B,,G,]2 [B,,B,]2 | %3
 [E,B,]4 [E,G,]4 | [E,B,]3 [E,B,] [E,C]2 [E,B,]2 | [E,^A,]2 [E,B,]2 [E,G,]4 | %6
 [B,,A,]3 [B,,A,] [B,,B,]2 [B,,A,]2 | [B,,A,]4 [E,G,]4 | [E,E]3 [E,E] [E,E]2 [E,E]2 | %9
 [E,E]2 [E,E]2 [E,B,]4 | [B,,B,]3 [B,,B,] [B,,B,]2 [B,,B,]2 | [B,,B,]2 [B,,B,]2 [B,,B,]4 || %12
 [E,B,]3 [E,B,] [E,A,]2 [E,G,]2 | [A,,A,]4 [A,,C]4 | [B,,B,]2 z2 [B,,G,]2 [B,,G,]2 | %15
 [B,,A,]4 [E,,E,G,]4 |] %16

